X:1
T:Brazzaville, 87.87.87 D
T:Brazzaville, 87.87.87 D
T:Arranged by Ella W. MacGill
T:Public Domain Courtesy of the Cyber Hymnal™
C:Arranged by Ella W. MacGill
Z:Public Domain
Z:Courtesy of the Cyber Hymnal™
%%score ( 1 2 ) ( 3 4 )
L:1/8
Q:1/4=99
M:3/4
K:Eb
V:1 treble 
V:2 treble 
V:3 bass 
V:4 bass 
V:1
 [GB][FA] | [EG]2 [EG]2 [EB][EG] | [DA]2 [DA]2 [DF][EG] | [DA]3 [DG] [FA][Ec] | [GB]2 z2 [GB]G | %5
 [Ge]3 [Ad] [Ae][Ac] | [GB]2 [EG]2 [Ec][EB] | [DA]2 [EG]2 [DA][DF] | [B,E]3 [EG] [EG]2 | %9
 [EG]2 [EG]2 [Ec][EG] | [GB]2 [FA]2 [FA][FA] | [DG]3 [DA] [DG][DF] | [B,E]3 [EG] [EG]2 | %13
 [DF]2 [DF]2 [EG][E=A] | [DB]2 [Dd]2 [FB][EG] | [DF]3 F [EG][E=A] | (B2 c2) [FB][FA] | %17
 [EG]2 [EG]2 [EB][EG] | [DA]2 [DA]2 [DF][EG] | [DA]3 [DG] [DA][Fc] | [GB]2 z2 [GB]G | %21
 [Ge]3 [Ad] [Ae][Ac] | B2 [Ge]2 E[DF] | [EG]3 E [DG][DF] | E2 z2 |] %25
V:2
 x2 | x6 | x6 | x6 | x5 G | x6 | x6 | x6 | x6 | x6 | x6 | x6 | x6 | x6 | x6 | x3 F x2 | D4 x2 | %17
 x6 | x6 | x6 | x5 G | x6 | B2 E x3 | x3 E x2 | E2 x2 |] %25
V:3
 [E,B,][E,B,] | [E,B,]2 [E,B,]2 [G,B,][E,B,] | [F,B,]2 [F,B,]2 [A,B,][G,B,] | %3
 [F,B,]3 B, [B,D][A,C] | [E,E]2 z2 [E,E][E,B,] | [E,B,]3 [F,B,] [E,C][A,E] | %6
 [B,E]2 [E,B,]2 [A,C][G,B,] | [F,B,]2 [E,B,]2 [F,B,][A,B,] | [G,B,]3 [E,B,] [E,B,]2 | %9
 [C,C]2 [C,C]2 [C,G,][C,C] | [F,C]2 [F,C]2 [F,C][F,C] | [G,B,]3 [G,B,] [A,B,][A,B,] | %12
 [G,B,]3 [E,B,] [E,B,]2 | [B,,B,]2 [B,,B,]2 [E,B,][F,=A,] | [G,B,]2 B,2 [B,D]B, | %15
 [B,,B,]3 [D,B,] [E,B,]F, | [B,,F,]4 [D,B,][D,B,] | [E,B,]2 [E,B,]2 [G,B,][E,B,] | %18
 [F,B,]2 [F,B,]2 [B,,B,][E,B,] | [F,B,]3 B, [B,D][B,D] | [E,E]2 z2 [E,E][E,B,] | %21
 [E,B,]3 [F,B,] [E,C][A,E] | [B,E]2 [E,B,]2 [E,G,][B,,B,] | [E,B,]3 [E,G,] [B,,B,][B,,A,] | %24
 [E,G,]2 z2 |] %25
V:4
 x2 | x6 | x6 | x3 B, x2 | x6 | x6 | x6 | x6 | x6 | x6 | x6 | x6 | x6 | x6 | x2 B,2 B, x | x5 F, | %16
 x6 | x6 | x6 | x3 B, x2 | x6 | x6 | x6 | x6 | x4 |] %25

